X:1
T:A minor Samuel Babcock, 1803
T:Isaac Watts, 1717 (Psalm 22, Part 3)     88. 88. (L. M.)
T:Crucifixion
T:Transcribed from The Middlesex Harmony, 1803.
%%score [ 1 2 3 ]
L:1/8
Q:1/4=130
M:4/4
K:C
V:1 treble nm="Tr." snm="Tr."
V:2 treble-8 nm="T." snm="T."
V:3 bass nm="B." snm="B."
V:1
 A4 c2 cd | e2 e2 c2 A2 | ^G6 B2 | c2 c2 c2 B2 | A4 ^G4 | A8 | e4 e2 e2 | A2 G2 A2 dc | B6 cd | %9
w: 1.~Now let our *|mourn- ful songs re-|cord The|dy- ing sor- rows|of our|Lord,|When he com-|plained in tears and *|blood, As *|
 e2 cd e2 dc | B6 B2 | A8 |: z4 A4 | c6 e2 | e2 e2 e2 cA | ^G6 AB | c2 c2 B2 cB | A4 (d3 c) | %18
w: one for- * sa- ken *|of his|God.|The|Jews be-|held him thus for- *|lorn, And *|shook their heads, and *|laughed in *|
 B6 A>B | c2 A2 G2 F2 | E2 D2 E4 | B4 c2 cd | e2 g2 ed cd | e6 AB | c2 f2 d2 c2 | B6 B2 | A8 :| %27
w: scorn: "He *|res- cued oth- ers|from the grave;|He res- cued *|oth- ers from * the *|grave; Now *|let him try him-|self to|save."|
V:2
 A4 e2 ed | c2 B2 A2 c2 | B6 B2 | e2 e2 e2 d2 | c4 B4 | A8 | B4 B2 B2 | c2 B2 c2 d2 | e6 ed | %9
w: 2.~This is the *|man did once pre-|tend God|was his Fa- ther|and his|friend;|If God, the|bles- sed loved him|so, Why *|
 c2 ed c2 A2 | ^G6 G2 | A8 |: z4 E4 | A6 B2 | c2 c2 A2 c2 | B6 cd | e2 e2 d2 ed | c4 d4 | e6 c>d | %19
w: doth he * fail to|save him|now?|Bar-|ba- rous|peo- ple! Cru- el|priests! How *|they stood round like *|sa- vage|beasts! Like *|
 e2 c2 B2 A2 | G2 F2 E4 | E4 A2 A2 | B2 B2 c2 A2 | B6 cd | e2 c2 B2 A2 | ^G6 G2 | A8 :| %27
w: li- ons ga- ping|to de- vour,|Like li- ons|ga- ping to de-|vour, When *|God had left him|in their|power.|
V:3
 A,4 A,2 A,2 | E,2 E,2 A,,2 A,,2 | E,6 E,2 | C,2 C,2 C,2 D,2 | E,4 E,4 | A,,8 | E,4 E,2 E,2 | %7
w: 3.~They wound his|head, his hands, his|feet, Tull|streams of blood each|oth- er|meet;|By lot his|
 A,2 G,2 A,2 B,2 | E,6 G,2 | C,2 C,2 C,2 D,2 | E,6 E,2 | A,,8 |: z4 A,,4 | A,,6 E,2 | %14
w: gar- ments they di-|vide, And|mock the pangs in|which he|died.|But|God, his|
 C,2 C,2 C,2 A,,2 | E,6 A,B, | C2 C2 G,2 G,2 | A,4 B,4 | E,6"^The" z2 | %19
w: Fa- ther, heard his|cry; Raised *|from the dead, he|reigns on|high;|
"^na – tions  learn  his" z8 |"^right–eous–ness," z8 | E,4 A,,2 A,,2 | E,2 E,2 A,2 A,2 | E,6 E,D, | %24
w: ||The na- tions|learn his righ- teous-|ness, And *|
 C,2 C,2 D,E, F,D, | E,6 E,2 | A,,8 :| %27
w: hum- ble sin- * ners *|taste his|grace.|

